X: 4784
T: Boys Of Portaferry, The
R: reel
M: 4/4
K: Eminor
||G2 BG AG BG|GGBG GE DE|GGGB AB (3cBA|dBGB (3cBA FA|
GA BG AG BG|GGBG GE DE|GGGB AB (3cBA|dB (3cBA G3||
(3Bcd gd ed gd|(3Bcd gd e2 dc|Bd ef gg fa|ge dB (3cBA FA|
(3Bcd gd ed gd|(3Bcd gd e2 dc|Bd ef gz b2|zgge dB (3cBA||

